src/components/00-materials/images-raw/laptop Repair.svg

<svg width="96" height="96" viewBox="0 0 96 96" fill="none" xmlns="http://www.w3.org/2000/svg">
<path d="M11.81 59.7299V17.45C11.81 16.1239 12.3368 14.8521 13.2745 13.9144C14.2121 12.9767 15.4839 12.45 16.81 12.45H73.67C75.2613 12.45 76.7874 13.0821 77.9126 14.2073C79.0379 15.3325 79.67 16.8587 79.67 18.45V24.81M8.44 59.7299H63.44C63.6681 59.7299 63.8868 59.8206 64.0481 59.9818C64.2094 60.1431 64.3 60.3619 64.3 60.59V65.1399C64.3 65.368 64.2094 65.5868 64.0481 65.7481C63.8868 65.9093 63.6681 66 63.44 66H3.89C3.77456 66.004 3.6595 65.9847 3.55167 65.9433C3.44384 65.9019 3.34546 65.8392 3.2624 65.7589C3.17934 65.6787 3.11329 65.5825 3.06821 65.4761C3.02313 65.3698 2.99993 65.2555 3 65.1399C3 63.7051 3.56998 62.3291 4.58455 61.3145C5.59912 60.2999 6.97518 59.7299 8.41 59.7299H8.44Z" stroke="#00008F" stroke-width="2" stroke-linecap="round" stroke-linejoin="round"/>
<path d="M64.32 53.5899H18.8C18.5719 53.5899 18.3532 53.4993 18.1919 53.338C18.0306 53.1767 17.94 52.958 17.94 52.7299V19.5099C17.94 19.2809 18.0303 19.0611 18.1913 18.8982C18.3523 18.7353 18.571 18.6425 18.8 18.6399H72.65C72.879 18.6425 73.0977 18.7353 73.2587 18.8982C73.4197 19.0611 73.51 19.2809 73.51 19.5099V25.3499" stroke="#00008F" stroke-width="2" stroke-linecap="round" stroke-linejoin="round"/>
<path d="M85.51 25.3499H67.78C65.8691 25.3499 64.32 26.8989 64.32 28.8099V65.9999C64.32 67.9108 65.8691 69.4599 67.78 69.4599H85.51C87.4209 69.4599 88.97 67.9108 88.97 65.9999V28.8099C88.97 26.8989 87.4209 25.3499 85.51 25.3499Z" stroke="#00008F" stroke-width="2" stroke-linecap="round" stroke-linejoin="round"/>
<path d="M88.97 62.9699H64.32H88.97ZM88.97 31.5599H64.32H88.97ZM77.94 66.2099H75.35H77.94ZM77.29 28.9699H76H77.29ZM47.27 15.6199H44.67H47.27ZM7 81.2599C7 77.2599 9.28 72.9999 14.25 72.9999H35.65C35.879 72.9999 36.0988 73.0901 36.2617 73.2511C36.4245 73.4121 36.5174 73.6309 36.52 73.8599V88.6499C36.52 88.8806 36.4283 89.1019 36.2652 89.2651C36.102 89.4282 35.8807 89.5199 35.65 89.5199H14.22C9.25 89.5199 7 85.2599 7 81.2599Z" stroke="#00008F" stroke-width="2" stroke-linecap="round" stroke-linejoin="round"/>
<path d="M30.52 83.98H14.22M36.49 84H72C72.1353 83.9989 72.2689 84.0297 72.39 84.09L77.28 86.52C77.3997 86.5791 77.5315 86.6098 77.665 86.6098C77.7985 86.6098 77.9303 86.5791 78.05 86.52L84.51 83.33C84.6554 83.2584 84.7775 83.1472 84.8625 83.0092C84.9474 82.8712 84.9916 82.712 84.99 82.55V80C84.9893 79.8384 84.9441 79.6802 84.8595 79.5426C84.7748 79.405 84.6539 79.2934 84.51 79.22L78 76C77.8803 75.9409 77.7485 75.9102 77.615 75.9102C77.4815 75.9102 77.3497 75.9409 77.23 76L72.42 78.43C72.2985 78.4892 72.1651 78.52 72.03 78.52H36.49V84ZM30.52 78.54H14.22H30.52Z" stroke="#00008F" stroke-width="2" stroke-linecap="round" stroke-linejoin="round"/>
</svg>

<svg width="96" height="96" viewBox="0 0 96 96" fill="none" xmlns="http://www.w3.org/2000/svg"><path d="M11.81 59.73V17.45a5 5 0 015-5h56.86a6 6 0 016 6v6.36M8.44 59.73h55a.86.86 0 01.86.86v4.55a.86.86 0 01-.86.86H3.89a.86.86 0 01-.89-.86 5.41 5.41 0 015.41-5.41h.03z" stroke="#00008F" stroke-width="2" stroke-linecap="round" stroke-linejoin="round"/><path d="M64.32 53.59H18.8a.86.86 0 01-.86-.86V19.51a.87.87 0 01.86-.87h53.85a.87.87 0 01.86.87v5.84" stroke="#00008F" stroke-width="2" stroke-linecap="round" stroke-linejoin="round"/><path d="M85.51 25.35H67.78a3.46 3.46 0 00-3.46 3.46V66a3.46 3.46 0 003.46 3.46h17.73A3.46 3.46 0 0088.97 66V28.81a3.46 3.46 0 00-3.46-3.46zM88.97 62.97H64.32h24.65zm0-31.41H64.32h24.65zM77.94 66.21h-2.59 2.59zm-.65-37.24H76h1.29zM47.27 15.62h-2.6 2.6zM7 81.26c0-4 2.28-8.26 7.25-8.26h21.4a.87.87 0 01.87.86v14.79a.87.87 0 01-.87.87H14.22C9.25 89.52 7 85.26 7 81.26z" stroke="#00008F" stroke-width="2" stroke-linecap="round" stroke-linejoin="round"/><path d="M30.52 83.98h-16.3m22.27.02H72a.86.86 0 01.39.09l4.89 2.43a.87.87 0 00.77 0l6.46-3.19a.86.86 0 00.48-.78V80a.88.88 0 00-.48-.78L78 76a.87.87 0 00-.77 0l-4.81 2.43a.89.89 0 01-.39.09H36.49V84zm-5.97-5.46h-16.3 16.3z" stroke="#00008F" stroke-width="2" stroke-linecap="round" stroke-linejoin="round"/></svg>
